X: 0654
T: JONNY BOKER
B: Oliver Ditson "The Boston Collection of Instrumental Music" 1910 p.65 #4
F: http://conquest.imslp.info/files/imglnks/usimg/8/8f/IMSLP175643-PMLP309456-bostoncollection00bost_bw.pdf
M: 2/4
L: 1/8
K: D
A |\
dd ee | fd g>g | fd ec/c/ | dd AA |\
dd ee | fd g>g | fd/d/ ec | dd A2 |
dd/d/ c/e/z | df g/e/z | dd/d/ c/e/z | dA[dF]z & d2x2 |]\
dA/A/ eA/A/ | fd/d/ g/e/c | d/e/f/d/ c/d/e/g/ | f/d/e/c/ d |]


